packages/icons/src/components/CategoryIcon/assets/use-cases.svg

<svg>
  <path d="M14 14C15.1046 14 16 14.8954 16 16C16 17.1046 15.1046 18 14 18C12.8954 18 12 17.1046 12 16C12 14.8954 12.8954 14 14 14Z" fill="#A060F6" className="fillStrong"/>
  <path d="M14 8C15.1046 8 16 8.89543 16 10C16 11.1046 15.1046 12 14 12C12.8954 12 12 11.1046 12 10C12 8.89543 12.8954 8 14 8Z" fill="#A060F6" className="fillStrong"/>
  <path d="M14 2C15.1046 2 16 2.89543 16 4C16 5.10457 15.1046 6 14 6C12.8954 6 12 5.10457 12 4C12 2.89543 12.8954 2 14 2Z" fill="#A060F6" className="fillStrong"/>
  <path d="M11.1738 3C11.0631 3.31306 11 3.649 11 4C11 4.351 11.0631 4.68694 11.1738 5H8.5C7.94772 5 7.5 5.44772 7.5 6V9H11.1738C11.0631 9.31306 11 9.649 11 10C11 10.351 11.0631 10.6869 11.1738 11H7.5V14C7.5 14.5523 7.94772 15 8.5 15H11.1738C11.0631 15.3131 11 15.649 11 16C11 16.351 11.0631 16.6869 11.1738 17H8.5C6.84315 17 5.5 15.6569 5.5 14V11H3.5C2.94772 11 2.5 10.5523 2.5 10C2.5 9.44772 2.94772 9 3.5 9H5.5V6C5.5 4.34315 6.84315 3 8.5 3H11.1738Z" fill="#521094" className="fill"/>
</svg>

<svg>
    <path fill="#a060f6" d="M14 14a2 2 0 1 1 0 4 2 2 0 0 1 0-4m0-6a2 2 0 1 1 0 4 2 2 0 0 1 0-4m0-6a2 2 0 1 1 0 4 2 2 0 0 1 0-4" className="fillStrong"/>
    <path fill="#521094" d="M11.174 3c-.11.313-.174.649-.174 1s.063.687.174 1H8.5a1 1 0 0 0-1 1v3h3.674c-.11.313-.174.649-.174 1s.063.687.174 1H7.5v3a1 1 0 0 0 1 1h2.674c-.11.313-.174.649-.174 1s.063.687.174 1H8.5a3 3 0 0 1-3-3v-3h-2a1 1 0 1 1 0-2h2V6a3 3 0 0 1 3-3z" className="fill"/>
</svg>
